brandFactory_export/1.Light/AF_Importar_1Light.svg

<?xml version="1.0" encoding="UTF-8"?>
<svg width="24px" height="24px" viewBox="0 0 24 24" version="1.1" xmlns="http://www.w3.org/2000/svg" xmlns:xlink="http://www.w3.org/1999/xlink">
    <title>1.Light/AF_Importar_1Light</title>
    <g id="Symbols" stroke="none" stroke-width="1" fill="none" fill-rule="evenodd">
        <g id="1.Light/AF_Importar_1Light" fill="#5CB615" fill-rule="nonzero">
            <path d="M11.394958,0.208403361 C11.4621849,0.14789916 11.5361345,0.0941176471 11.6168067,0.0571428571 C11.7848739,-0.0168067227 11.9764706,-0.0168067227 12.1445378,0.0571428571 C12.2285714,0.0974789916 12.3092437,0.14789916 12.3798319,0.208403361 L19.3277311,7.15630252 C19.6,7.42857143 19.6,7.86890756 19.3277311,8.14453782 C19.0554622,8.41680672 18.6151261,8.41680672 18.3394958,8.14453782 L12.5747899,2.37647059 L12.5747899,16.8705882 C12.5747899,17.2537815 12.2621849,17.5663866 11.8789916,17.5663866 C11.4957983,17.5663866 11.1831933,17.2537815 11.1831933,16.8705882 L11.1831933,2.37647059 L5.30756303,8.26890756 C5.03529412,8.54117647 4.59495798,8.54117647 4.31932773,8.26890756 C4.04705882,7.99663866 4.04705882,7.55630252 4.31932773,7.28067227 L11.394958,0.208403361 Z M22.9277311,17.189916 C23.3109244,17.189916 23.6235294,17.502521 23.6235294,17.8857143 L23.6235294,22.9310924 C23.6235294,23.3142857 23.3109244,23.6268908 22.9277311,23.6268908 L0.695798319,23.6268908 C0.312605042,23.6268908 0,23.3142857 0,22.9310924 L0,17.8857143 C0,17.502521 0.312605042,17.189916 0.695798319,17.189916 C1.0789916,17.189916 1.39159664,17.502521 1.39159664,17.8857143 L1.39159664,22.2352941 L22.2352941,22.2352941 L22.2352941,17.8857143 C22.2352941,17.4991597 22.5445378,17.189916 22.9277311,17.189916 L22.9277311,17.189916 Z" id="AF_Importar_1Light"></path>
        </g>
    </g>
</svg>

<svg width="24" height="24" viewBox="0 0 24 24" xmlns="http://www.w3.org/2000/svg"><path d="M11.395.208a.895.895 0 01.222-.15.655.655 0 01.528 0c.084.04.164.09.235.15l6.948 6.948a.7.7 0 01-.989.989l-5.764-5.769v14.495a.697.697 0 01-.696.695.697.697 0 01-.696-.695V2.376L5.308 8.27a.7.7 0 01-.989-.988L11.395.208zM22.928 17.19c.383 0 .696.313.696.696v5.045a.697.697 0 01-.696.696H.696A.697.697 0 010 22.93v-5.045c0-.383.313-.696.696-.696.383 0 .696.313.696.696v4.35h20.843v-4.35c0-.387.31-.696.693-.696z" fill="#5CB615" fill-rule="nonzero"/></svg>
